X:29
T:The Big Furze Bush
B:Terry "Cuz" Teahan "Sliabh Luachra on Parade" 1980
Z:Patrick Cavanagh
M:12/8
L:1/8
R:Slide
K:D
G | E2A ABA G2A Bcd | e2d B2A G3 E2D | 
E2A ABA G2A Bcd | e2d BcB A3 A2 :| 
f | e3 efe d3 dcd | e2d B2A G3 E2D | 
E2A ABA G2A Bcd | e2d BcB A3 A2 :|| 

